files/resources/svgs/general/m-computer-desktop.svg

<svg width="20" height="20" viewBox="0 0 20 20" fill="none" xmlns="http://www.w3.org/2000/svg">
<path fill-rule="evenodd" clip-rule="evenodd" d="M2 4.25C2 3.00736 3.00736 2 4.25 2H15.75C16.9926 2 18 3.00736 18 4.25V12.75C18 13.9926 16.9926 15 15.75 15H12.6448C12.8417 15.6619 13.2292 16.2418 13.7449 16.6767C13.9856 16.8798 14.0738 17.2116 13.9657 17.5074C13.8576 17.8032 13.5762 18 13.2613 18H6.73881C6.42387 18 6.14248 17.8032 6.03437 17.5074C5.92627 17.2116 6.01449 16.8798 6.25522 16.6767C6.77086 16.2418 7.15838 15.6619 7.35525 15H4.25C3.00736 15 2 13.9926 2 12.75V4.25ZM3.5 4.25C3.5 3.83579 3.83579 3.5 4.25 3.5H15.75C16.1642 3.5 16.5 3.83579 16.5 4.25V11.75C16.5 12.1642 16.1642 12.5 15.75 12.5H4.25C3.83579 12.5 3.5 12.1642 3.5 11.75V4.25Z" fill="#0F172A"/>
</svg>

<svg xmlns="http://www.w3.org/2000/svg" viewBox="0 0 20 20" fill="currentColor" aria-hidden="true">
  <path fill-rule="evenodd" d="M2 4.25A2.25 2.25 0 014.25 2h11.5A2.25 2.25 0 0118 4.25v8.5A2.25 2.25 0 0115.75 15h-3.105a3.501 3.501 0 001.1 1.677A.75.75 0 0113.26 18H6.74a.75.75 0 01-.484-1.323A3.501 3.501 0 007.355 15H4.25A2.25 2.25 0 012 12.75v-8.5zm1.5 0a.75.75 0 01.75-.75h11.5a.75.75 0 01.75.75v7.5a.75.75 0 01-.75.75H4.25a.75.75 0 01-.75-.75v-7.5z" clip-rule="evenodd"/>
</svg>
